X:1
T:Praetorius 7
T:Praetorius 7
T:Melody, 1536; ad. by Michael Praetorius, 1609
T:Public Domain Courtesy of the Cyber Hymnal™
C:Melody, 1536; ad. by Michael Praetorius, 1609
Z:Public Domain
Z:Courtesy of the Cyber Hymnal™
%%score ( 1 2 ) ( 3 4 )
L:1/8
Q:1/4=130
M:none
K:G
V:1 treble 
V:2 treble 
V:3 bass 
V:4 bass 
V:1
 D2 | [DG]4 [EG]2 [FA]4 [Gc]2 | B3 A B2 [FA]4 [FA]2 | G4 [EG]2 [Ec]4 [DB]2 | [FA]6- [FA]4 [EA]2 | %5
 [CE]4 [CF]2 [DG]4 [EA]2 | F3 E F2 D4 [DB]2 | [GB]4 [Gd]2 [Gc]4 [Fc]2 | [GB]6- [GB]4 [GB]2 | %9
 [GB]4 [Gd]2 [FA]4 [GB]2 | c3 d c2 [^DB]4 [DB]2 | [EB]4 [=Fd]2 [Ec]4 [EB]2 | [CA]6- [CA]4 [DB]2 | %13
 [EA]4 [EG]2 [FA]4 [DF]2 | G3 F [^CG]2 [DA]4 [DB]2 | [Dd]4 [DB]2 [Gc]2 [FA]4 | G6- G4 |] %17
V:2
 D2 | x12 | G6 x6 | x12 | x12 | x12 | D6 x6 | x12 | x12 | x12 | E6 x6 | x12 | x12 | x12 | D4 x8 | %15
 x12 | x10 |] %17
V:3
 [F,A,]2 | [G,B,]4 [E,B,]2 [D,D]4 [C,E]2 | D6 [D,D]4 [C,D]2 | %3
 [B,,D]4 [C,C]2 [E,G,]3 [F,A,] [G,B,]2 | [D,D]6- [D,D]4 [A,,C]2 | %5
 [C,G,]4 [A,,A,]2 [B,,G,]4 [C,C]2 | A,3 G, A,2 [D,F,]4 G,2 | [G,D]4 [F,D]2 [E,G,]4 [D,A,]2 | %8
 [G,B,]6- [G,B,]4 [G,D]2 | [G,D]4 [B,,D]2 [D,D]4 [B,,D]2 | A,4 G,2 [B,,F,]4 [B,,F,]2 | %11
 [E,G,]4 [D,A,]2 A,4 [E,^G,]2 | [A,,A,]6- [A,,A,]4 [D,F,]2 | [C,A,]4 [E,B,]2 [D,D]4 [C,A,]2 | %14
 G,6 [D,F,]4 G,2 | [F,A,]4 [G,B,]2 [C,E]2 D2 C2 | [G,,B,]6- [G,,B,]4 |] %17
V:4
 x2 | x12 | G,,4 B,,2 x6 | x12 | x12 | x12 | D,6 x6 | x12 | x12 | x12 | A,,6 x6 | x6 A,,3 C, x2 | %12
 x12 | x12 | B,,4 E,2 x6 | x8 D,4 | x10 |] %17

